assets/images/icons/src/building.svg

<?xml version="1.0" encoding="utf-8"?>
<!-- Generated by IcoMoon.io -->
<!DOCTYPE svg PUBLIC "-//W3C//DTD SVG 1.1//EN" "http://www.w3.org/Graphics/SVG/1.1/DTD/svg11.dtd">
<svg version="1.1" xmlns="http://www.w3.org/2000/svg" xmlns:xlink="http://www.w3.org/1999/xlink" width="11" height="14" viewBox="0 0 11 14">
<path fill="#444444" d="M10.5 0q0.203 0 0.352 0.148t0.148 0.352v13q0 0.203-0.148 0.352t-0.352 0.148h-10q-0.203 0-0.352-0.148t-0.148-0.352v-13q0-0.203 0.148-0.352t0.352-0.148h10zM4 2.25v0.5q0 0.109 0.070 0.18t0.18 0.070h0.5q0.109 0 0.18-0.070t0.070-0.18v-0.5q0-0.109-0.070-0.18t-0.18-0.070h-0.5q-0.109 0-0.18 0.070t-0.070 0.18zM4 4.25v0.5q0 0.109 0.070 0.18t0.18 0.070h0.5q0.109 0 0.18-0.070t0.070-0.18v-0.5q0-0.109-0.070-0.18t-0.18-0.070h-0.5q-0.109 0-0.18 0.070t-0.070 0.18zM4 6.25v0.5q0 0.109 0.070 0.18t0.18 0.070h0.5q0.109 0 0.18-0.070t0.070-0.18v-0.5q0-0.109-0.070-0.18t-0.18-0.070h-0.5q-0.109 0-0.18 0.070t-0.070 0.18zM4 8.25v0.5q0 0.109 0.070 0.18t0.18 0.070h0.5q0.109 0 0.18-0.070t0.070-0.18v-0.5q0-0.109-0.070-0.18t-0.18-0.070h-0.5q-0.109 0-0.18 0.070t-0.070 0.18zM3 10.75v-0.5q0-0.109-0.070-0.18t-0.18-0.070h-0.5q-0.109 0-0.18 0.070t-0.070 0.18v0.5q0 0.109 0.070 0.18t0.18 0.070h0.5q0.109 0 0.18-0.070t0.070-0.18zM3 8.75v-0.5q0-0.109-0.070-0.18t-0.18-0.070h-0.5q-0.109 0-0.18 0.070t-0.070 0.18v0.5q0 0.109 0.070 0.18t0.18 0.070h0.5q0.109 0 0.18-0.070t0.070-0.18zM3 6.75v-0.5q0-0.109-0.070-0.18t-0.18-0.070h-0.5q-0.109 0-0.18 0.070t-0.070 0.18v0.5q0 0.109 0.070 0.18t0.18 0.070h0.5q0.109 0 0.18-0.070t0.070-0.18zM3 4.75v-0.5q0-0.109-0.070-0.18t-0.18-0.070h-0.5q-0.109 0-0.18 0.070t-0.070 0.18v0.5q0 0.109 0.070 0.18t0.18 0.070h0.5q0.109 0 0.18-0.070t0.070-0.18zM3 2.75v-0.5q0-0.109-0.070-0.18t-0.18-0.070h-0.5q-0.109 0-0.18 0.070t-0.070 0.18v0.5q0 0.109 0.070 0.18t0.18 0.070h0.5q0.109 0 0.18-0.070t0.070-0.18zM7 12.75v-1.5q0-0.109-0.070-0.18t-0.18-0.070h-2.5q-0.109 0-0.18 0.070t-0.070 0.18v1.5q0 0.109 0.070 0.18t0.18 0.070h2.5q0.109 0 0.18-0.070t0.070-0.18zM7 8.75v-0.5q0-0.109-0.070-0.18t-0.18-0.070h-0.5q-0.109 0-0.18 0.070t-0.070 0.18v0.5q0 0.109 0.070 0.18t0.18 0.070h0.5q0.109 0 0.18-0.070t0.070-0.18zM7 6.75v-0.5q0-0.109-0.070-0.18t-0.18-0.070h-0.5q-0.109 0-0.18 0.070t-0.070 0.18v0.5q0 0.109 0.070 0.18t0.18 0.070h0.5q0.109 0 0.18-0.070t0.070-0.18zM7 4.75v-0.5q0-0.109-0.070-0.18t-0.18-0.070h-0.5q-0.109 0-0.18 0.070t-0.070 0.18v0.5q0 0.109 0.070 0.18t0.18 0.070h0.5q0.109 0 0.18-0.070t0.070-0.18zM7 2.75v-0.5q0-0.109-0.070-0.18t-0.18-0.070h-0.5q-0.109 0-0.18 0.070t-0.070 0.18v0.5q0 0.109 0.070 0.18t0.18 0.070h0.5q0.109 0 0.18-0.070t0.070-0.18zM9 10.75v-0.5q0-0.109-0.070-0.18t-0.18-0.070h-0.5q-0.109 0-0.18 0.070t-0.070 0.18v0.5q0 0.109 0.070 0.18t0.18 0.070h0.5q0.109 0 0.18-0.070t0.070-0.18zM9 8.75v-0.5q0-0.109-0.070-0.18t-0.18-0.070h-0.5q-0.109 0-0.18 0.070t-0.070 0.18v0.5q0 0.109 0.070 0.18t0.18 0.070h0.5q0.109 0 0.18-0.070t0.070-0.18zM9 6.75v-0.5q0-0.109-0.070-0.18t-0.18-0.070h-0.5q-0.109 0-0.18 0.070t-0.070 0.18v0.5q0 0.109 0.070 0.18t0.18 0.070h0.5q0.109 0 0.18-0.070t0.070-0.18zM9 4.75v-0.5q0-0.109-0.070-0.18t-0.18-0.070h-0.5q-0.109 0-0.18 0.070t-0.070 0.18v0.5q0 0.109 0.070 0.18t0.18 0.070h0.5q0.109 0 0.18-0.070t0.070-0.18zM9 2.75v-0.5q0-0.109-0.070-0.18t-0.18-0.070h-0.5q-0.109 0-0.18 0.070t-0.070 0.18v0.5q0 0.109 0.070 0.18t0.18 0.070h0.5q0.109 0 0.18-0.070t0.070-0.18z"></path>
</svg>

<svg xmlns="http://www.w3.org/2000/svg" width="11" height="14" viewBox="0 0 11 14"><path fill="#444" d="M10.5 0q.203 0 .352.148T11 .5v13q0 .203-.148.352T10.5 14H.5q-.203 0-.352-.148T0 13.5V.5Q0 .297.148.148T.5 0h10zM4 2.25v.5q0 .109.07.18t.18.07h.5q.109 0 .18-.07T5 2.75v-.5q0-.109-.07-.18T4.75 2h-.5q-.109 0-.18.07T4 2.25zm0 2v.5q0 .109.07.18t.18.07h.5q.109 0 .18-.07T5 4.75v-.5q0-.109-.07-.18T4.75 4h-.5q-.109 0-.18.07T4 4.25zm0 2v.5q0 .109.07.18t.18.07h.5q.109 0 .18-.07T5 6.75v-.5q0-.109-.07-.18T4.75 6h-.5q-.109 0-.18.07T4 6.25zm0 2v.5q0 .109.07.18t.18.07h.5q.109 0 .18-.07T5 8.75v-.5q0-.109-.07-.18T4.75 8h-.5q-.109 0-.18.07T4 8.25zm-1 2.5v-.5q0-.109-.07-.18T2.75 10h-.5q-.109 0-.18.07t-.07.18v.5q0 .109.07.18t.18.07h.5q.109 0 .18-.07t.07-.18zm0-2v-.5q0-.109-.07-.18T2.75 8h-.5q-.109 0-.18.07T2 8.25v.5q0 .109.07.18t.18.07h.5q.109 0 .18-.07T3 8.75zm0-2v-.5q0-.109-.07-.18T2.75 6h-.5q-.109 0-.18.07T2 6.25v.5q0 .109.07.18t.18.07h.5q.109 0 .18-.07T3 6.75zm0-2v-.5q0-.109-.07-.18T2.75 4h-.5q-.109 0-.18.07T2 4.25v.5q0 .109.07.18t.18.07h.5q.109 0 .18-.07T3 4.75zm0-2v-.5q0-.109-.07-.18T2.75 2h-.5q-.109 0-.18.07T2 2.25v.5q0 .109.07.18t.18.07h.5q.109 0 .18-.07T3 2.75zm4 10v-1.5q0-.109-.07-.18T6.75 11h-2.5q-.109 0-.18.07t-.07.18v1.5q0 .109.07.18t.18.07h2.5q.109 0 .18-.07t.07-.18zm0-4v-.5q0-.109-.07-.18T6.75 8h-.5q-.109 0-.18.07T6 8.25v.5q0 .109.07.18t.18.07h.5q.109 0 .18-.07T7 8.75zm0-2v-.5q0-.109-.07-.18T6.75 6h-.5q-.109 0-.18.07T6 6.25v.5q0 .109.07.18t.18.07h.5q.109 0 .18-.07T7 6.75zm0-2v-.5q0-.109-.07-.18T6.75 4h-.5q-.109 0-.18.07T6 4.25v.5q0 .109.07.18t.18.07h.5q.109 0 .18-.07T7 4.75zm0-2v-.5q0-.109-.07-.18T6.75 2h-.5q-.109 0-.18.07T6 2.25v.5q0 .109.07.18t.18.07h.5q.109 0 .18-.07T7 2.75zm2 8v-.5q0-.109-.07-.18T8.75 10h-.5q-.109 0-.18.07t-.07.18v.5q0 .109.07.18t.18.07h.5q.109 0 .18-.07t.07-.18zm0-2v-.5q0-.109-.07-.18T8.75 8h-.5q-.109 0-.18.07T8 8.25v.5q0 .109.07.18t.18.07h.5q.109 0 .18-.07T9 8.75zm0-2v-.5q0-.109-.07-.18T8.75 6h-.5q-.109 0-.18.07T8 6.25v.5q0 .109.07.18t.18.07h.5q.109 0 .18-.07T9 6.75zm0-2v-.5q0-.109-.07-.18T8.75 4h-.5q-.109 0-.18.07T8 4.25v.5q0 .109.07.18t.18.07h.5q.109 0 .18-.07T9 4.75zm0-2v-.5q0-.109-.07-.18T8.75 2h-.5q-.109 0-.18.07T8 2.25v.5q0 .109.07.18t.18.07h.5q.109 0 .18-.07T9 2.75z"/></svg>
